X:1
T: Buckley's Hornpipe
C:
R:Reel
Q: 232
K:Eb
M:4/4
L:1/8
|:((3B=Ac)|BG EB, G,B =Ac|BG EB, G,B =Ac|BG Eg de Bc'|=bc' af df =eg|
fd BF Df =eg|fd BF Df =ef|af dB AF DB,|E2G2 E2:|
|:((3edf)|ec' ac' e'c' ac'|ba gf eg fe|da fd Bc AB|GB eg be df|
ec' ac' e'c' ac'|ba gf eg fe|da fd BA FD|E2G2 E2:|
